src/assets/duotone/Html3.svg

<svg width="24" height="24" viewBox="0 0 24 24"  xmlns="http://www.w3.org/2000/svg">
<path opacity="0.4" d="M4.1201 2H19.8901C20.4901 2 20.9501 2.52 20.8801 3.11L19.0801 19.33C19.0401 19.73 18.7501 20.07 18.3601 20.18L12.2801 21.92C12.1001 21.97 11.9101 21.97 11.7301 21.92L5.6501 20.18C5.2601 20.07 4.9801 19.73 4.9301 19.33L3.1301 3.11C3.0601 2.52 3.5201 2 4.1201 2Z" />
<path d="M17.06 6.50047C16.92 6.34047 16.72 6.25047 16.5 6.25047L7.5 6.23047C7.09 6.23047 6.75 6.56047 6.75 6.98047C6.75 7.39047 7.08 7.73047 7.5 7.73047L15.66 7.75047L15.38 10.2505H8C7.59 10.2505 7.25 10.5905 7.25 11.0005C7.25 11.4105 7.59 11.7505 8 11.7505H15.22L14.81 15.4205L12 16.2205L9.12 15.4005L8.72 13.8205C8.62 13.4205 8.21 13.1705 7.81 13.2705C7.41 13.3705 7.16 13.7805 7.26 14.1805L7.76 16.1805C7.82 16.4405 8.02 16.6505 8.28 16.7205L11.78 17.7205C11.85 17.7405 11.92 17.7505 11.99 17.7505C12.06 17.7505 12.13 17.7405 12.2 17.7205L15.7 16.7205C15.99 16.6405 16.21 16.3905 16.24 16.0805L17.24 7.08047C17.27 6.87047 17.2 6.66047 17.06 6.50047Z" />
</svg>

<?xml version="1.0" encoding="UTF-8"?>
<svg width="24" height="24" viewBox="0 0 24 24" xmlns="http://www.w3.org/2000/svg">
 <path d="m4.1201 2h15.77c0.6 0 1.06 0.52 0.99 1.11l-1.8 16.22c-0.04 0.4-0.33 0.74-0.72 0.85l-6.08 1.74c-0.18 0.05-0.37 0.05-0.55 0l-6.08-1.74c-0.39-0.11-0.67-0.45-0.72-0.85l-1.8-16.22c-0.07-0.59 0.39-1.11 0.99-1.11z" opacity=".4"/>
 <path d="m17.06 6.5005c-0.14-0.16-0.34-0.25-0.56-0.25l-9-0.02c-0.41 0-0.75 0.33-0.75 0.75 0 0.41 0.33 0.75 0.75 0.75l8.16 0.02-0.28 2.5h-7.38c-0.41 0-0.75 0.34-0.75 0.75s0.34 0.75 0.75 0.75h7.22l-0.41 3.67-2.81 0.8-2.88-0.82-0.4-1.58c-0.1-0.4-0.51-0.65-0.91-0.55s-0.65 0.51-0.55 0.91l0.5 2c0.06 0.26 0.26 0.47 0.52 0.54l3.5 1c0.07 0.02 0.14 0.03 0.21 0.03s0.14-0.01 0.21-0.03l3.5-1c0.29-0.08 0.51-0.33 0.54-0.64l1-9c0.03-0.21-0.04-0.42-0.18-0.58z"/>
</svg>
